icons/calendar.svg

<svg width="131" height="92" viewBox="0 0 131 92" fill="none" xmlns="http://www.w3.org/2000/svg">
<path d="M26.605 79.0111V30.9692H98.7431V79.0111C98.7431 82.8771 95.6091 86.0111 91.7431 86.0111H33.605C29.739 86.0111 26.605 82.8771 26.605 79.0111Z" fill="#B4D6F8"/>
<path d="M35.6235 81.149H88.3451M98.5666 34.3286H35.6235" stroke="#DBECFD" stroke-width="3" stroke-linecap="round"/>
<path d="M35.4868 15.9053H48.2829H89.3026C94.8255 15.9053 99.3026 20.3824 99.3026 25.9053V76.5906C99.3026 82.1135 94.8254 86.5906 89.3026 86.5906H35.4868C29.964 86.5906 25.4868 82.1135 25.4868 76.5906V25.9053C25.4868 20.3824 29.964 15.9053 35.4868 15.9053Z" stroke="#1B8CFF" stroke-width="3" stroke-linecap="round"/>
<path d="M43.3813 2V14.7465M81.4077 14.7465V2" stroke="#1B8CFF" stroke-width="3" stroke-linecap="round"/>
<path d="M98.1841 29.8105H26.0459" stroke="#1B8CFF" stroke-width="3" stroke-linecap="round"/>
<rect x="35.6235" y="43.2466" width="7.82895" height="8.11143" fill="#1B8CFF"/>
<rect x="35.6235" y="55.9927" width="7.82895" height="8.11143" fill="#1B8CFF"/>
<rect x="50.1631" y="43.2466" width="7.82895" height="8.11143" fill="#1B8CFF"/>
<path d="M126.881 61.0977C126.881 75.0392 115.986 86.2495 102.658 86.2495C89.3291 86.2495 78.4341 75.0392 78.4341 61.0977C78.4341 47.1561 89.3291 35.9458 102.658 35.9458C115.986 35.9458 126.881 47.1561 126.881 61.0977Z" fill="white" stroke="#1B8CFF" stroke-width="3"/>
<path d="M91.4736 62.2568L103.776 73.2652L114.401 49.5103" stroke="#1B8CFF" stroke-width="4"/>
<path d="M2 90.0669H129.5" stroke="#DBECFD" stroke-width="3" stroke-linecap="round"/>
</svg>

<svg xmlns="http://www.w3.org/2000/svg" width="131" height="92" fill="none"><path fill="#B4D6F8" d="M26.605 79.011V30.97h72.138v48.042a7 7 0 0 1-7 7H33.605a7 7 0 0 1-7-7Z"/><path stroke="#DBECFD" stroke-linecap="round" stroke-width="3" d="M35.623 81.149h52.722m10.222-46.82H35.624"/><path stroke="#1B8CFF" stroke-linecap="round" stroke-width="3" d="M35.487 15.905h53.816c5.523 0 10 4.477 10 10v50.686c0 5.523-4.478 10-10 10H35.487c-5.523 0-10-4.477-10-10V25.905c0-5.523 4.477-10 10-10ZM43.381 2v12.746m38.027 0V2M98.184 29.81H26.046"/><path fill="#1B8CFF" d="M35.623 43.247h7.829v8.111h-7.829zM35.623 55.993h7.829v8.111h-7.829zM50.163 43.247h7.829v8.111h-7.829z"/><path fill="#fff" stroke="#1B8CFF" stroke-width="3" d="M126.881 61.098c0 13.941-10.895 25.151-24.223 25.151-13.329 0-24.224-11.21-24.224-25.151 0-13.942 10.895-25.152 24.224-25.152 13.328 0 24.223 11.21 24.223 25.152Z"/><path stroke="#1B8CFF" stroke-width="4" d="m91.474 62.257 12.302 11.008 10.625-23.755"/><path stroke="#DBECFD" stroke-linecap="round" stroke-width="3" d="M2 90.067h127.5"/></svg>
